X:1
T: The Tin Woodman
C:
R:Strathspey
Q: 128
K:G
M:4/4
L:1/16
|:D4|B,3D ED3 B,3D ED3|C3E GB3 A4 G3A|B4 B3A G4 ((3D2E2F2) |G4 G3F E4 D4|
B,3D ED3 B,3D ED3|C3E GB3 A4 B3A|G4 F3G ((3E2F2E2) D3C|((3B,2D2G2) B3A G4:|
|:B3c|d3e dB3 G4 ((3G2A2B2) |c3d cB3 A4 B3c|d3e dB3 G4 B4|((3A2^c2e2) g3a ((3e2f2e2) ((3d2B2=c2) |
d3e dB3 G4 ((3G2A2B2) |c3d cB3 A4 B3A|G4 F3G ((3E2F2E2) D3C|((3B,2D2G2) B3A G4:|
